images/health.svg

<svg height="65" viewBox="0 0 65 65" width="65" xmlns="http://www.w3.org/2000/svg"><g fill="#731982" transform=""><path d="m65 52v-50.91666667c0-.65-.4333333-1.08333333-1.0833333-1.08333333h-47.6666667c-.65 0-1.0833333.43333333-1.0833333 1.08333333v62.83333337c0 .65.4333333 1.0833333 1.0833333 1.0833333h35.75c.325 0 .5416667-.1083333.7583333-.325l11.9166667-11.9166667c.1083333-.1083333.1083333-.2166666.2166667-.325v-.1083333c.1083333-.1083333.1083333-.2166667.1083333-.325zm-47.6666667-49.83333333h45.5v48.75000003h-10.8333333c-.65 0-1.0833333.4333333-1.0833333 1.0833333v10.8333333h-33.5833334zm35.75 59.15000003v-8.2333334h8.2333334l-4.1166667 4.1166667z"/><path d="m26 17.3333333h2.1666667v-4.3333333h4.3333333v-2.1666667h-4.3333333v-4.3333333h-2.1666667v4.3333333h-4.3333333v2.1666667h4.3333333z"/><path d="m52 8.666667h6.5v2.166667h-6.5z"/><path d="m45.5 13h13v2.166667h-13z"/><path d="m22.75 32.5h34.6666667c.65 0 1.0833333-.4333333 1.0833333-1.0833333v-8.6666667c0-.65-.4333333-1.0833333-1.0833333-1.0833333h-34.6666667c-.65 0-1.0833333.4333333-1.0833333 1.0833333v8.6666667c0 .65.4333333 1.0833333 1.0833333 1.0833333zm1.0833333-8.6666667h32.5v6.5h-32.5z"/><path d="m21.666667 35.75h2.166667v2.166667h-2.166667z"/><path d="m26 35.75h10.833333v2.166667h-10.833333z"/><path d="m43.333333 35.75h2.166667v2.166667h-2.166667z"/><path d="m47.666667 35.75h10.833333v2.166667h-10.833333z"/><path d="m21.666667 41.166667h2.166667v2.166667h-2.166667z"/><path d="m26 41.166667h10.833333v2.166667h-10.833333z"/><path d="m43.333333 41.166667h2.166667v2.166667h-2.166667z"/><path d="m47.666667 41.166667h10.833333v2.166667h-10.833333z"/><path d="m21.666667 46.583333h2.166667v2.166667h-2.166667z"/><path d="m26 46.583333h10.833333v2.166667h-10.833333z"/><path d="m21.666667 52h2.166667v2.166667h-2.166667z"/><path d="m26 52h10.833333v2.166667h-10.833333z"/><path d="m21.666667 57.416667h2.166667v2.166667h-2.166667z"/><path d="m26 57.416667h10.833333v2.166667h-10.833333z"/><path d="m43.333333 46.583333h2.166667v2.166667h-2.166667z"/><path d="m47.666667 46.583333h10.833333v2.166667h-10.833333z"/><path d="m9.64166667.75833333c-.10833334-.43333333-.54166667-.75833333-.975-.75833333-.43333334 0-.86666667.325-.975.75833333l-3.14166667 9.42499997c-.10833333.1083334-.21666667.325-.21666667.5416667v.1083333 41.1666667 5.4166667h-2.16666666v-31.4166667h-2.16666667v32.5c0 .65.43333333 1.0833333 1.08333333 1.0833333h3.25v4.3333334c0 .65.43333334 1.0833333 1.08333334 1.0833333h6.50000003c.65 0 1.0833333-.4333333 1.0833333-1.0833333v-11.9166667-41.1666667c0-.2166666-.1083333-.5416666-.2166667-.65zm-3.14166667 11.15833337h4.3333333v39h-4.3333333zm2.16666667-7.3666667 1.73333333 5.2h-3.46666667zm2.16666663 58.2833333h-4.3333333v-9.75h4.3333333z"/></g></svg>

<?xml version="1.0" encoding="UTF-8"?>
<svg width="65px" height="65px" viewBox="0 0 65 65" version="1.1" xmlns="http://www.w3.org/2000/svg" xmlns:xlink="http://www.w3.org/1999/xlink">
    <!-- Generator: Sketch 48.2 (47327) - http://www.bohemiancoding.com/sketch -->
    <title>health-insurance</title>
    <desc>Created with Sketch.</desc>
    <defs></defs>
    <g id="Desktop-HD-Copy-25" stroke="none" stroke-width="1" fill="none" fill-rule="evenodd" transform="translate(-760.000000, -1272.000000)">
        <g id="Group-9" transform="translate(760.000000, 1272.000000)" fill="#731982" fill-rule="nonzero">
            <g id="health-insurance">
                <path d="M65,52 L65,1.08333333 C65,0.433333333 64.5666667,0 63.9166667,0 L16.25,0 C15.6,0 15.1666667,0.433333333 15.1666667,1.08333333 L15.1666667,63.9166667 C15.1666667,64.5666667 15.6,65 16.25,65 L52,65 C52.325,65 52.5416667,64.8916667 52.7583333,64.675 L64.675,52.7583333 C64.7833333,52.65 64.7833333,52.5416667 64.8916667,52.4333333 L64.8916667,52.325 C65,52.2166667 65,52.1083333 65,52 Z M17.3333333,2.16666667 L62.8333333,2.16666667 L62.8333333,50.9166667 L52,50.9166667 C51.35,50.9166667 50.9166667,51.35 50.9166667,52 L50.9166667,62.8333333 L17.3333333,62.8333333 L17.3333333,2.16666667 Z M53.0833333,61.3166667 L53.0833333,53.0833333 L61.3166667,53.0833333 L57.2,57.2 L53.0833333,61.3166667 Z" id="Shape"></path>
                <polygon id="Shape" points="26 17.3333333 28.1666667 17.3333333 28.1666667 13 32.5 13 32.5 10.8333333 28.1666667 10.8333333 28.1666667 6.5 26 6.5 26 10.8333333 21.6666667 10.8333333 21.6666667 13 26 13"></polygon>
                <rect id="Rectangle-path" x="52" y="8.66666667" width="6.5" height="2.16666667"></rect>
                <rect id="Rectangle-path" x="45.5" y="13" width="13" height="2.16666667"></rect>
                <path d="M22.75,32.5 L57.4166667,32.5 C58.0666667,32.5 58.5,32.0666667 58.5,31.4166667 L58.5,22.75 C58.5,22.1 58.0666667,21.6666667 57.4166667,21.6666667 L22.75,21.6666667 C22.1,21.6666667 21.6666667,22.1 21.6666667,22.75 L21.6666667,31.4166667 C21.6666667,32.0666667 22.1,32.5 22.75,32.5 Z M23.8333333,23.8333333 L56.3333333,23.8333333 L56.3333333,30.3333333 L23.8333333,30.3333333 L23.8333333,23.8333333 Z" id="Shape"></path>
                <rect id="Rectangle-path" x="21.6666667" y="35.75" width="2.16666667" height="2.16666667"></rect>
                <rect id="Rectangle-path" x="26" y="35.75" width="10.8333333" height="2.16666667"></rect>
                <rect id="Rectangle-path" x="43.3333333" y="35.75" width="2.16666667" height="2.16666667"></rect>
                <rect id="Rectangle-path" x="47.6666667" y="35.75" width="10.8333333" height="2.16666667"></rect>
                <rect id="Rectangle-path" x="21.6666667" y="41.1666667" width="2.16666667" height="2.16666667"></rect>
                <rect id="Rectangle-path" x="26" y="41.1666667" width="10.8333333" height="2.16666667"></rect>
                <rect id="Rectangle-path" x="43.3333333" y="41.1666667" width="2.16666667" height="2.16666667"></rect>
                <rect id="Rectangle-path" x="47.6666667" y="41.1666667" width="10.8333333" height="2.16666667"></rect>
                <rect id="Rectangle-path" x="21.6666667" y="46.5833333" width="2.16666667" height="2.16666667"></rect>
                <rect id="Rectangle-path" x="26" y="46.5833333" width="10.8333333" height="2.16666667"></rect>
                <rect id="Rectangle-path" x="21.6666667" y="52" width="2.16666667" height="2.16666667"></rect>
                <rect id="Rectangle-path" x="26" y="52" width="10.8333333" height="2.16666667"></rect>
                <rect id="Rectangle-path" x="21.6666667" y="57.4166667" width="2.16666667" height="2.16666667"></rect>
                <rect id="Rectangle-path" x="26" y="57.4166667" width="10.8333333" height="2.16666667"></rect>
                <rect id="Rectangle-path" x="43.3333333" y="46.5833333" width="2.16666667" height="2.16666667"></rect>
                <rect id="Rectangle-path" x="47.6666667" y="46.5833333" width="10.8333333" height="2.16666667"></rect>
                <path d="M9.64166667,0.758333333 C9.53333333,0.325 9.1,0 8.66666667,0 C8.23333333,0 7.8,0.325 7.69166667,0.758333333 L4.55,10.1833333 C4.44166667,10.2916667 4.33333333,10.5083333 4.33333333,10.725 L4.33333333,10.8333333 L4.33333333,52 L4.33333333,57.4166667 L2.16666667,57.4166667 L2.16666667,26 L0,26 L0,58.5 C0,59.15 0.433333333,59.5833333 1.08333333,59.5833333 L4.33333333,59.5833333 L4.33333333,63.9166667 C4.33333333,64.5666667 4.76666667,65 5.41666667,65 L11.9166667,65 C12.5666667,65 13,64.5666667 13,63.9166667 L13,52 L13,10.8333333 C13,10.6166667 12.8916667,10.2916667 12.7833333,10.1833333 L9.64166667,0.758333333 Z M6.5,11.9166667 L10.8333333,11.9166667 L10.8333333,50.9166667 L6.5,50.9166667 L6.5,11.9166667 Z M8.66666667,4.55 L10.4,9.75 L6.93333333,9.75 L8.66666667,4.55 Z M10.8333333,62.8333333 L6.5,62.8333333 L6.5,53.0833333 L10.8333333,53.0833333 L10.8333333,62.8333333 Z" id="Shape"></path>
            </g>
        </g>
    </g>
</svg>
